X:1
T:Wennerberg, SM
T:Wennerberg, SM
T:Gunnar Wennerberg (1817-1901)
T:Public Domain Courtesy of the Cyber Hymnal™
C:Gunnar Wennerberg (1817-1901)
Z:Public Domain
Z:Courtesy of the Cyber Hymnal™
%%score ( 1 2 ) ( 3 4 )
L:1/8
Q:1/4=107
M:4/4
K:A
V:1 treble 
V:2 treble 
V:3 bass 
V:4 bass 
V:1
 (AG) | [DF]2 E2 [DF]2 G2 | [CA]6 (AG) | [DF]2 E2 [DF]2 [DG]2 | [CA]6 | (c^d) | %6
 [Ee]2 [EB]2 [Dd]2 [DA]2 | [Cc]2 [CF]2 [EB]2 (E^E) | [DF]2 (dB) [EA]2 [DG]2 | [CA]6 |] %10
V:2
 E2 | x2 E2 (ED) x2 | x6 C2 | x2 E2 x4 | x6 | E2 | x8 | x6 ^EE | x2 F2 x4 | x6 |] %10
V:3
 [C,A,]2 | [D,A,]2 [C,A,]2 [D,A,]2 [B,,E,]2 | [A,,E,]6 A,2 | [D,A,]2 [C,A,]2 [B,,A,]2 [B,,E,]2 | %4
 [A,,E,]6 | A,2 | [G,B,]2 [=G,B,]2 [F,A,]2 [=F,A,]2 | [E,A,]2 [^D,A,]2 [=D,G,]2 [C,A,]2 | %8
 [D,A,]2 (B,D) [E,C]2 [E,B,]2 | [A,,A,]6 |] %10
V:4
 x2 | x8 | x6 (F,E,) | x8 | x6 | A,2 | x8 | x8 | x2 B,,2 x4 | x6 |] %10

